dist/img/sprites/vk.svg

<svg width="36" height="22" viewBox="0 0 36 22" xmlns="http://www.w3.org/2000/svg">
<path d="M0.627584 1.63555C2.25374 1.63555 5.7256 1.63555 6.8989 1.63555C7.13905 1.63555 7.35862 1.78734 7.46154 2.01864C8.90244 5.32185 10.659 8.30701 12.7723 10.938C12.9507 11.2488 13.3967 11.2127 13.527 10.873C14.1857 9.18161 15.407 5.06163 13.0467 2.13429C12.834 1.87408 12.9232 1.46208 13.2183 1.33198C15.606 0.283912 17.9458 0.132124 20.2237 1.20187C20.704 1.42594 21.0128 1.92468 21.0128 2.48123L21.548 10.9669C21.548 11.3428 21.8773 11.6464 22.2273 11.5669C24.8483 10.9814 26.3921 6.83973 27.9222 2.51737C28.1075 1.9825 28.5878 1.62833 29.1298 1.62833H34.9071C35.3806 1.62833 35.758 2.06924 35.6756 2.56074C35.1336 5.62542 32.2038 9.60083 30.6737 11.5163C30.1453 12.174 30.1385 13.1426 30.6737 13.8075L35.8403 20.2911C36.2108 20.7537 35.8952 21.4692 35.3188 21.4692H28.7799C28.2447 21.4692 27.7301 21.2307 27.3665 20.8187L22.7968 16.8072C22.5566 16.5325 22.1106 16.4385 21.8842 16.7204C21.3147 17.4432 21.3627 18.3395 21.0951 20.3706C21.0128 21.0066 20.4708 21.462 19.8601 21.462H15.3865C14.7483 21.462 14.124 21.3247 13.5476 21.0356C10.9814 19.7562 3.97595 15.217 0.0306425 2.50292C-0.0997241 2.07646 0.202177 1.63555 0.627584 1.63555Z"/>
</svg>

<svg width="36" height="22" viewBox="0 0 36 22" xmlns="http://www.w3.org/2000/svg"><path d="M.628 1.636h6.27c.241 0 .46.151.564.383 1.44 3.303 3.197 6.288 5.31 8.919.179.31.625.275.755-.065.659-1.691 1.88-5.811-.48-8.739-.213-.26-.124-.672.171-.802 2.388-1.048 4.728-1.2 7.006-.13.48.224.789.723.789 1.28l.535 8.485c0 .376.33.68.68.6 2.62-.586 4.164-4.727 5.694-9.05.186-.534.666-.889 1.208-.889h5.777c.474 0 .851.441.769.933-.542 3.064-3.472 7.04-5.002 8.955a1.845 1.845 0 000 2.291l5.166 6.484c.37.463.055 1.178-.521 1.178h-6.54a1.894 1.894 0 01-1.413-.65l-4.57-4.012c-.24-.274-.685-.368-.912-.087-.57.723-.521 1.62-.789 3.65a1.25 1.25 0 01-1.235 1.092h-4.473a4.074 4.074 0 01-1.84-.426c-2.565-1.28-9.57-5.819-13.515-18.533-.13-.427.171-.867.597-.867z"/></svg>
